X:14
T:Schottis fr\aan Porjus
C:efter G\"oran Lindqvist
D:J.P. Nystroms; Manifest MAN 4 (12/95)
M:2/4
L:1/8
R:Schottis
%O:Sweden
Z:Bob Wyttenbach  8/5/02, from Fiddles & Feet 2002 tunebook, "Printed by Karen Myers"
K:E %Transposed from D
P:A
"D"b2ba|g4|"A"f2df|"D"e4|ge Be|ge ga|g2f2|"A"f2-f>g|
a2ag|f2fe|de dc|B4|B2df|b2g2|"D"Tf2e2|e4:|
P:B
"D"ge Be|ge Be|g2gf|e2fg|"G"a2cc|c2aa|a2ag|
"A"f4|"pizz.".f2.B2|.f2.B2|.f2"arco"fe|d2-d>c|B2df|b2g2|"D"Tf2e2|e4:|
